resources/svg/pdf.svg

<svg xmlns="http://www.w3.org/2000/svg" viewBox="0 0 15 15" fill="currentColor"><path d="M3.5 8H3V7H3.5C3.77614 7 4 7.22386 4 7.5C4 7.77614 3.77614 8 3.5 8Z" fill="black"/><path d="M7 10V7H7.5C7.77614 7 8 7.22386 8 7.5V9.5C8 9.77614 7.77614 10 7.5 10H7Z" fill="black"/><path fill-rule="evenodd" clip-rule="evenodd" d="M1 1.5C1 0.671573 1.67157 0 2.5 0H10.7071L14 3.29289V13.5C14 14.3284 13.3284 15 12.5 15H2.5C1.67157 15 1 14.3284 1 13.5V1.5ZM3.5 6H2V11H3V9H3.5C4.32843 9 5 8.32843 5 7.5C5 6.67157 4.32843 6 3.5 6ZM7.5 6H6V11H7.5C8.32843 11 9 10.3284 9 9.5V7.5C9 6.67157 8.32843 6 7.5 6ZM10 11V6H13V7H11V8H12V9H11V11H10Z" fill="black"/></svg>

<svg xmlns="http://www.w3.org/2000/svg" viewBox="0 0 15 15" fill="currentColor"><path d="M3.5 8H3V7h.5a.5.5 0 010 1zM7 10V7h.5a.5.5 0 01.5.5v2a.5.5 0 01-.5.5H7z" fill="currentColor"/><path fill-rule="evenodd" clip-rule="evenodd" d="M1 1.5A1.5 1.5 0 012.5 0h8.207L14 3.293V13.5a1.5 1.5 0 01-1.5 1.5h-10A1.5 1.5 0 011 13.5v-12zM3.5 6H2v5h1V9h.5a1.5 1.5 0 100-3zm4 0H6v5h1.5A1.5 1.5 0 009 9.5v-2A1.5 1.5 0 007.5 6zm2.5 5V6h3v1h-2v1h1v1h-1v2h-1z" fill="currentColor"/></svg>
